fa/link-slash.svg

<svg xmlns="http://www.w3.org/2000/svg" viewBox="0 0 640 512" height="1em" width="1em">
  <path d="M185.7 120.3c56.8-44.48 139-40.57 190.4 10.8 44 44 54.8 108.5 30.6 162.4l31.9 24.9 95.9-95.9c31.5-31.5 31.5-83.4 0-114-27.8-27.87-71.8-32.4-103.8-8.6l-1.6 1.1c-14.4 10.3-34.4 6.1-44.6-7.42-10.3-14.38-7-34.37 7.4-44.64l1.6-1.12C451 6.732 529.8 13.25 579.8 63.24c56.5 56.46 56.5 148.06 0 204.46l-90.5 90.5 141.5 110.9c10.4 8.2 12.3 23.3 4.1 33.7-8.2 10.4-23.3 12.3-33.7 4.1L9.196 42.89C-1.236 34.71-3.065 19.63 5.112 9.196 13.29-1.236 28.37-3.065 38.81 5.112L185.7 120.3zm52.4 40.8 115.3 90.6c5.9-26.2-1.7-54.5-21.7-74.5-25.1-25.1-62.6-30.2-93.6-16.1zM263 380c-29.9-29.9-44.3-70.2-42.1-110l185.7 146.4C357.4 431 301.9 418.9 263 380zM116.6 187.9l50.6 39.9-61.7 61.7c-31.51 30.6-31.51 82.5 0 114 27.8 27.9 71.8 31.5 103.8 8.6l1.6-2c14.4-9.4 34.4-6.1 44.6 8.3 10.3 14.4 7 34.4-7.4 44.7l-1.6 1.1c-58.4 41.1-136.3 34.5-186.29-15.4-56.469-56.5-56.469-148.1 0-204.5l56.39-56.4z"/>
</svg>

<svg xmlns="http://www.w3.org/2000/svg" viewBox="0 0 640 512" height="1em" width="1em">
  <path d="M185.7 120.3C242.5 75.82 324.7 79.73 376.1 131.1C420.1 175.1 430.9 239.6 406.7 293.5L438.6 318.4L534.5 222.5C566 191 566 139.1 534.5 108.5C506.7 80.63 462.7 76.1 430.7 99.9L429.1 101C414.7 111.3 394.7 107.1 384.5 93.58C374.2 79.2 377.5 59.21 391.9 48.94L393.5 47.82C451 6.732 529.8 13.25 579.8 63.24C636.3 119.7 636.3 211.3 579.8 267.7L489.3 358.2L630.8 469.1C641.2 477.3 643.1 492.4 634.9 502.8C626.7 513.2 611.6 515.1 601.2 506.9L9.196 42.89C-1.236 34.71-3.065 19.63 5.112 9.196C13.29-1.236 28.37-3.065 38.81 5.112L185.7 120.3zM238.1 161.1L353.4 251.7C359.3 225.5 351.7 197.2 331.7 177.2C306.6 152.1 269.1 147 238.1 161.1V161.1zM263 380C233.1 350.1 218.7 309.8 220.9 270L406.6 416.4C357.4 431 301.9 418.9 263 380V380zM116.6 187.9L167.2 227.8L105.5 289.5C73.99 320.1 73.99 372 105.5 403.5C133.3 431.4 177.3 435 209.3 412.1L210.9 410.1C225.3 400.7 245.3 404 255.5 418.4C265.8 432.8 262.5 452.8 248.1 463.1L246.5 464.2C188.1 505.3 110.2 498.7 60.21 448.8C3.741 392.3 3.741 300.7 60.21 244.3L116.6 187.9z"/>
</svg>
